src/assets/outline/NoteSquare.svg

<svg width="24" height="24" viewBox="0 0 24 24"  xmlns="http://www.w3.org/2000/svg">
<path d="M11 22.75H9C3.57 22.75 1.25 20.43 1.25 15V9C1.25 3.57 3.57 1.25 9 1.25H15C20.43 1.25 22.75 3.57 22.75 9V10C22.75 10.41 22.41 10.75 22 10.75C21.59 10.75 21.25 10.41 21.25 10V9C21.25 4.39 19.61 2.75 15 2.75H9C4.39 2.75 2.75 4.39 2.75 9V15C2.75 19.61 4.39 21.25 9 21.25H11C11.41 21.25 11.75 21.59 11.75 22C11.75 22.41 11.41 22.75 11 22.75Z" />
<path d="M15.5098 22.75C13.9998 22.75 12.7598 21.52 12.7598 20C12.7598 18.48 13.9898 17.25 15.5098 17.25C17.0298 17.25 18.2598 18.48 18.2598 20C18.2598 21.52 17.0198 22.75 15.5098 22.75ZM15.5098 18.76C14.8198 18.76 14.2598 19.32 14.2598 20.01C14.2598 20.7 14.8198 21.26 15.5098 21.26C16.1998 21.26 16.7598 20.7 16.7598 20.01C16.7598 19.32 16.1998 18.76 15.5098 18.76Z" />
<path d="M17.5098 20.75C17.0998 20.75 16.7598 20.41 16.7598 20V13.01C16.7598 12.6 17.0998 12.26 17.5098 12.26C17.9198 12.26 18.2598 12.6 18.2598 13.01V20C18.2598 20.42 17.9198 20.75 17.5098 20.75Z" />
<path d="M21.0798 16.5C20.8698 16.5 20.6598 16.47 20.4498 16.39L18.2397 15.66C17.3897 15.38 16.7598 14.49 16.7598 13.6V13.01C16.7598 12.4 17.0098 11.87 17.4598 11.55C17.9098 11.23 18.4898 11.16 19.0598 11.35L21.2698 12.09C22.1198 12.37 22.7498 13.26 22.7498 14.15V14.74C22.7498 15.35 22.4997 15.88 22.0497 16.2C21.7697 16.4 21.4298 16.5 21.0798 16.5ZM18.4297 12.75C18.3897 12.75 18.3498 12.76 18.3298 12.77C18.2898 12.8 18.2598 12.87 18.2598 13.01V13.6C18.2598 13.84 18.4897 14.16 18.7197 14.24L20.9297 14.97C21.0597 15.01 21.1497 15 21.1797 14.98C21.2197 14.95 21.2598 14.88 21.2598 14.74V14.15C21.2598 13.91 21.0297 13.59 20.7997 13.51L18.5898 12.78C18.5198 12.76 18.4697 12.75 18.4297 12.75Z" />
</svg>

<?xml version="1.0" encoding="UTF-8"?>
<svg width="24" height="24" viewBox="0 0 24 24" xmlns="http://www.w3.org/2000/svg">
 <path d="m11 22.75h-2c-5.43 0-7.75-2.32-7.75-7.75v-6c0-5.43 2.32-7.75 7.75-7.75h6c5.43 0 7.75 2.32 7.75 7.75v1c0 0.41-0.34 0.75-0.75 0.75s-0.75-0.34-0.75-0.75v-1c0-4.61-1.64-6.25-6.25-6.25h-6c-4.61 0-6.25 1.64-6.25 6.25v6c0 4.61 1.64 6.25 6.25 6.25h2c0.41 0 0.75 0.34 0.75 0.75s-0.34 0.75-0.75 0.75z"/>
 <path d="m15.51 22.75c-1.51 0-2.75-1.23-2.75-2.75s1.23-2.75 2.75-2.75 2.75 1.23 2.75 2.75-1.24 2.75-2.75 2.75zm0-3.99c-0.69 0-1.25 0.56-1.25 1.25s0.56 1.25 1.25 1.25 1.25-0.56 1.25-1.25-0.56-1.25-1.25-1.25z"/>
 <path d="m17.51 20.75c-0.41 0-0.75-0.34-0.75-0.75v-6.99c0-0.41 0.34-0.75 0.75-0.75s0.75 0.34 0.75 0.75v6.99c0 0.42-0.34 0.75-0.75 0.75z"/>
 <path d="m21.08 16.5c-0.21 0-0.42-0.03-0.63-0.11l-2.2101-0.73c-0.85-0.28-1.4799-1.17-1.4799-2.06v-0.59c0-0.61 0.25-1.14 0.7-1.46s1.03-0.39 1.6-0.2l2.21 0.74c0.85 0.28 1.48 1.17 1.48 2.06v0.59c0 0.61-0.2501 1.14-0.7001 1.46-0.28 0.2-0.6199 0.3-0.9699 0.3zm-2.6501-3.75c-0.04 0-0.0799 0.01-0.0999 0.02-0.04 0.03-0.07 0.1-0.07 0.24v0.59c0 0.24 0.2299 0.56 0.4599 0.64l2.21 0.73c0.13 0.04 0.22 0.03 0.25 0.01 0.04-0.03 0.0801-0.1 0.0801-0.24v-0.59c0-0.24-0.2301-0.56-0.4601-0.64l-2.2099-0.73c-0.07-0.02-0.1201-0.03-0.1601-0.03z"/>
</svg>
